X:68
T:twmpathe 2, y
B:alawon fy ngwlad - bennett
O:traditional welsh
Z:crm
M:2/4
L:1/8
Q:1/8=180
K:Em
{A}E/D/E/G/ BB|c>BGE|G/D/GBB|AGFF|E>GF/E/D/F/|E2zE|
{A}E/D/E/G/ BB|c>BGE|G/D/GBB|AGFF|E>GF/E/D/F/|E2zB||
B>cdc|BA/G/AA|B3B|AGAB|G3A|F2zG|~F2~E2|A2EG/A/|BAGF|
~E2cB|AGFG/A/|BAGF|E/F/GFD|1E2zB:|2E2z||
